X: 16496
T: Hair On The Gate
R: reel
M: 4/4
K: Eminor
|:BE E2 GABE-|EGAd B2 AG|BE E2 GABc-|cBAG BBAG|
BE E2 GABE-|EGAd B2 AG|edde B2 AG|A3G FGAc:|
|:Begf efde-|eedf e3A|Begf efga-|a aag fede|
Begf efde-|e edf e3B|c3 AB3 G|A3G FGAc:|

